X: 135
T: Forked Deer
B: canberra pickers and fiddlers
B: old time tunes update
B: tunes
M:4/4
L:1/8
R: reel
Q: 1/4=100
K:D
V:1 
"D"de fg a2 af|"G"g2 ge "A7"fg fe|\
"D"de fg a2 af|"G"gf ed "A7"cB A2|!
"D"de fg a2 af|"G"g2 ge "A7"fg fe|\
"D"d2 BB A2 G2|"A7"F2E2"D"D4:|!
|:"A"A2 AA c2 cc|A2 AA F2E2|\
A2 AA c2 cc|"A7"d3d"D"B2A2|!
"A"A2 AA c2 cc|A2 AA F2 E2|\
"A"E2 EF G2 GA|GF E2"D"D4:|
% abcbook-tune_id 67a7d9ec67c6d4146e687cb2
% abcbook-tune_composer_id 
% abcbook-link-0 https://www.youtube.com/watch?v=3rVTDiYPozo
% abcbook-link-title-0 Sam Bush &amp; Sierra Hull - &quot;Forked Deer&quot; - Grey Fox 2018
% abcbook-link-start-at-0 119
% abcbook-link-end-at-0 289
% abcbook-boost 0
% abcbook-difficulty 0
% abcbook-tags old time tunes
% abcbook-tablature 
% abcbook-transpose 
% abcbook-tuning ADAE
% abcbook-lastupdated 1739162852971
% abcbook-src-url 
% abcbook-soundfonts 
% abcbook-repeats 1
% Rhythm Reel
% Titles One title
% Transcriptions Only 1 transcription
% Movement Has some stepwise movement
% Mode major
% Key A
% Key D
% Time_signature 4/4
% Text Has source text
% Has_accompaniment_chords Has chords

